X:1
T:Title
%%score { ( 1 3 ) | ( 2 4 ) }
L:1/8
Q:1/4=112
M:4/4
K:G
V:1 treble nm="Grand Piano"
V:3 treble 
V:2 bass 
V:4 bass 
V:1
 [DGB]2 [DGB]2 [DGB]2 [D=FB]2 | [DEB]4 [CEA]4 | [B,DG]2 [CEG]2 [B,DG]2 [DFA]2 | [DGB]6 z2 | %4
w: W.~H.~Doane * * *||||
 [EAc]2 [EAc]2 [EAc]2 [DAc]2 | [DGB]4 [^CGB]4 | [DA]2 [Fd]2 d2 [G^c]2 | [Fd]6 c2 | %8
w: ||||
 [DGB]2 [DGB]2 [DGB]2 [DGB]2 | [DGB]4 [DFA]4 | [DFc]2 [DGc]2 [DAc]2 [DFc]2 | [Gc]4 [DGB]4 | %12
w: ||||
 [Ge]2 [Ge]2 [Ge]2 [Ge]2 | e4 z2 =F2 | [DEB]2 [CEA]2 [B,DG]2 [A,DF]2 | [B,DG]6 z2 | [Gd]4 z4 | %17
w: |||||
 d4 z4 | d2 e2 e2 d2 | [Gd]2 [Fc]2 [Fc]4 | [Ac]4 [FA]2 z2 | [Ac]4 [FA]2 z2 | %22
w: |||||
 [Ac]2 [Bd]2 [Bd]2 [Ac]2 |[M:5/4] [GB]2 [G^c]2 [Fd]6 |[M:4/4] [DGB]2 [DGB]2 [DGB]2 [DGB]2 | %25
w: |||
 [DGB]4 [DFA]4 | [DFc]2 [DGc]2 [DAc]2 [DFc]2 | [Gc]4 z4 | [Ge]2 [Ge]2 [Ge]2 [Ge]2 | e4 z2 =F2 | %30
w: |||||
 [DEB]2 [CEA]2 [B,DG]2 [A,DF]2 |[M:8/4] [B,DG]8 z8 |] %32
w: ||
V:2
 G,,2 B,,2 D,2 G,2 | C,4 C,4 | D,2 D,2 D,2 D,2 | G,6 z2 | A,,2 C,2 E,2 F,2 | G,4 E,4 | %6
 F,2 [D,A,]2 [A,E]2 [A,,A,]2 | [D,A,]6 A2 | G,,2 A,,2 B,,2 G,,2 | D,4 D,4 | D,2 E,2 F,2 D,2 | %11
 z2 ^D2 G,4 | [C,C]2 [D,C]2 [E,C]2 [C,C]2 | [G,B,G]4 G2 z2 | C,2 C,2 D,2 D,2 | G,,6 z2 | %16
 [G,B,]2 G,2 [G,DG]2 z2 | G2- [G,G]2 [G,DG]2 z2 | [G,B,G]2 [G,CG]2 [G,CG]2 [G,B,G]2 | %19
 [D,B,]2 [D,A,]2 [D,A,]4 | [D,D]2 [D,D]2 [D,D]2 z2 | [D,D]2 [D,D]2 [D,D]2 z2 | %22
 [D,D]2 [D,D]2 [D,D]2 [F,D]2 |[M:5/4] [G,D]2 [E,A,]2 [D,A,]6 |[M:4/4] G,,2 A,,2 B,,2 G,,2 | %25
 D,4 D,4 | D,2 E,2 F,2 D,2 | z2 ^D2 G,4 | [C,C]2 [D,C]2 [E,C]2 [C,C]2 | [G,B,G]4 G2 z2 | %30
 C,2 C,2 D,2 D,2 |[M:8/4] G,,8 z8 |] %32
V:3
 x8 | x8 | x8 | x8 | x8 | x8 | x8 | x8 | x8 | x8 | x8 | E2 z2 z4 | x8 | z4 B4 | x8 | x8 | %16
 z2 B,2 B2 z2 | z2 B,2 B2 z2 | x8 | x8 | x8 | x8 | x8 |[M:5/4] x10 |[M:4/4] x8 | x8 | x8 | %27
 E2 z2 [DGB]4 | x8 | z4 B4 | x8 |[M:8/4] x16 |] %32
V:4
 x8 | x8 | x8 | x8 | x8 | x8 | x8 | x8 | x8 | x8 | x8 | G,4 z4 | x8 | z4 [G,D]4 | x8 | x8 | x8 | %17
 [G,B,]2 z2 z4 | x8 | x8 | x8 | x8 | x8 |[M:5/4] x10 |[M:4/4] x8 | x8 | x8 | G,4 z4 | x8 | %29
 z4 [G,D]4 | x8 |[M:8/4] x16 |] %32

